public/icons/vbeat-2.svg

<svg version="1.1" id="Layer_1" xmlns="http://www.w3.org/2000/svg" xmlns:xlink="http://www.w3.org/1999/xlink" x="0px" y="0px"
	 width="100%" viewBox="0 0 1024 1024" enable-background="new 0 0 1024 1024" xml:space="preserve">
<path fill="#000000" opacity="1.000000" stroke="none" 
	d="
M272.000061,312.668823 
	C289.331696,312.661041 306.164337,312.750214 322.994110,312.571136 
	C326.738922,312.531311 328.600067,313.671936 329.830658,317.347595 
	C347.587860,370.386566 365.481995,423.379669 383.363770,476.376923 
	C392.142792,502.395691 401.039856,528.375000 409.682617,554.438843 
	C410.953247,558.270630 413.138550,559.046204 416.721375,559.035583 
	C450.051025,558.936768 483.381226,559.015991 516.710815,558.908325 
	C523.798584,558.885376 530.987488,558.029297 534.826599,566.660095 
	C535.184082,566.374084 535.541504,566.088074 535.898987,565.802124 
	C537.141418,558.869446 538.471252,551.951111 539.611328,545.001648 
	C544.857666,513.023621 550.053711,481.037415 555.261047,449.053009 
	C556.355713,442.329559 557.332336,435.585388 558.532776,428.881104 
	C559.314148,424.516968 562.289490,422.030701 566.568848,422.087219 
	C570.825256,422.143402 573.637939,424.696899 574.573303,429.016022 
	C574.714294,429.666962 574.953003,430.301025 575.047302,430.957153 
	C579.162109,459.588379 583.185303,488.233002 587.396057,516.850037 
	C590.735596,539.546204 594.325745,562.205322 597.762695,584.887268 
	C600.594849,603.577759 603.365540,622.277588 606.508545,640.972839 
	C609.791443,629.048279 611.562317,616.895325 613.645752,604.805481 
	C615.762390,592.522644 617.746460,580.216797 619.911377,567.942688 
	C620.970398,561.938782 624.479553,558.992493 630.611450,558.791443 
	C634.940063,558.649475 639.276917,558.782471 643.609009,558.718811 
	C649.277771,558.635437 652.598816,555.960815 652.624695,550.407837 
	C652.646240,545.774231 654.635986,544.808533 658.694519,544.919067 
	C666.187927,545.123047 673.693726,545.066772 681.189514,544.901306 
	C684.790100,544.821838 686.161438,546.134827 686.296570,549.823364 
	C686.561890,557.067383 688.577637,558.762817 695.849670,558.765259 
	C720.680420,558.773682 745.511230,558.766418 770.341980,558.765869 
	C771.675110,558.765869 773.011963,558.709351 774.340637,558.788330 
	C779.907776,559.118896 783.473572,562.633301 783.244995,567.512085 
	C783.021545,572.280762 779.637695,575.318420 774.139404,575.355042 
	C762.307861,575.433777 750.475342,575.386963 738.643250,575.385254 
	C722.144958,575.382812 705.640808,575.121216 689.151245,575.497742 
	C682.850891,575.641663 678.689636,573.393433 675.512756,568.233826 
	C674.167236,566.048401 672.961975,563.509338 670.061340,562.560547 
	C667.530762,564.137329 666.255676,566.738281 664.865479,569.121765 
	C662.375977,573.389893 658.922607,575.700256 653.927063,575.709656 
	C649.596680,575.717834 645.264832,575.958435 640.936829,575.891479 
	C637.321594,575.835571 635.736633,577.218079 635.092773,580.997131 
	C628.948914,617.057312 622.595032,653.081848 616.297546,689.115845 
	C615.581909,693.210815 614.915710,697.316284 614.096313,701.390686 
	C613.093689,706.376038 609.860229,709.418701 605.739197,709.093628 
	C601.050476,708.723877 598.539551,705.661316 597.863831,701.336365 
	C595.374573,685.404968 593.067749,669.444885 590.707825,653.493347 
	C587.204346,629.812134 583.721252,606.127808 580.216125,582.446838 
	C576.370056,556.461792 572.523376,530.476746 568.639771,504.497345 
	C568.002075,500.231903 567.173035,495.995056 565.648254,491.618469 
	C564.219482,499.910675 562.702454,508.188843 561.378296,516.497742 
	C557.321533,541.952393 553.312622,567.414673 549.354736,592.884888 
	C548.743835,596.816101 547.292480,600.077515 543.175537,601.060486 
	C538.683838,602.132812 535.445374,599.917725 533.124207,596.215637 
	C529.672974,590.711243 526.098022,585.272217 522.928650,579.607910 
	C521.138306,576.408203 518.885437,575.164612 515.284546,575.355713 
	C510.631317,575.602722 505.944794,575.617737 501.292419,575.366211 
	C497.337097,575.152466 495.364685,576.615295 494.072205,580.473694 
	C481.963409,616.621399 469.668671,652.706787 457.416046,688.806274 
	C455.061890,695.742310 452.606049,702.644348 450.301636,709.596680 
	C449.444366,712.182922 447.919678,713.267517 445.151642,713.260498 
	C424.820618,713.208984 404.488831,713.191772 384.158569,713.339966 
	C380.411591,713.367249 379.450806,711.176514 378.468475,708.318298 
	C366.293945,672.894409 354.081024,637.483765 341.839081,602.083130 
	C309.354187,508.144653 276.848297,414.213440 244.366547,320.273834 
	C243.618958,318.111816 242.454575,316.025513 242.687164,312.669067 
	C252.348679,312.669067 261.924377,312.669067 272.000061,312.668823 
z"/>
<path fill="#000000" opacity="1.000000" stroke="none" 
	d="
M564.557861,372.439697 
	C550.892578,412.876129 537.358154,452.938873 523.831604,493.004272 
	C518.506897,508.775787 513.142273,524.534241 507.933533,540.343994 
	C506.901947,543.475037 505.358307,544.905579 501.884552,544.895325 
	C478.399872,544.826294 454.914673,544.938354 431.429626,544.976929 
	C429.457642,544.980164 427.426086,545.284058 425.609802,544.219727 
	C424.511383,542.429382 425.673126,540.936646 426.167053,539.445984 
	C450.618713,465.653351 475.129242,391.880157 499.499664,318.060699 
	C500.786926,314.161438 502.433624,312.535492 506.774017,312.573547 
	C530.601074,312.782562 554.430969,312.649109 578.259888,312.664703 
	C580.060791,312.665894 581.939758,312.333618 584.408447,313.827728 
	C577.876648,333.121490 571.284241,352.594299 564.557861,372.439697 
z"/>
<path fill="#000000" opacity="1.000000" stroke="none" 
	d="
M652.536011,513.575439 
	C652.533020,510.139496 652.557312,507.149292 652.563660,504.159058 
	C652.578613,497.130615 652.575012,497.106873 659.819702,497.076050 
	C666.975830,497.045624 674.132385,497.105377 681.288269,497.055145 
	C684.772827,497.030701 686.392334,498.393036 686.308533,502.125214 
	C686.121704,510.442474 686.142883,518.768494 686.291748,527.087219 
	C686.353333,530.528015 684.966248,531.936462 681.612000,531.892090 
	C673.459961,531.784424 665.306763,531.737854 657.153992,531.736816 
	C653.899353,531.736389 652.376892,530.551514 652.593140,526.997559 
	C652.855347,522.688843 652.591431,518.348022 652.536011,513.575439 
z"/>
</svg>

<svg xmlns="http://www.w3.org/2000/svg" viewBox="0 0 1024 1024">
	<path
		d="M272 312.669c17.332-.008 34.164.081 50.994-.098 3.745-.04 5.606 1.1 6.837 4.777 17.757 53.039 35.651 106.032 53.533 159.029 8.779 26.019 17.676 51.998 26.319 78.062 1.27 3.832 3.456 4.607 7.038 4.597 33.33-.1 66.66-.02 99.99-.128 7.088-.023 14.276-.879 18.116 7.752l1.072-.858c1.242-6.933 2.572-13.85 3.712-20.8 5.247-31.978 10.443-63.965 15.65-95.949 1.095-6.723 2.071-13.468 3.272-20.172.781-4.364 3.756-6.85 8.036-6.794 4.256.056 7.069 2.61 8.004 6.929.141.651.38 1.285.474 1.941 4.115 28.631 8.138 57.276 12.35 85.893 3.339 22.696 6.929 45.355 10.366 68.037 2.832 18.69 5.603 37.39 8.746 56.086 3.282-11.925 5.053-24.078 7.137-36.168 2.116-12.282 4.1-24.588 6.265-36.862 1.06-6.004 4.569-8.95 10.7-9.152 4.33-.142 8.666-.009 12.998-.072 5.669-.084 8.99-2.758 9.016-8.311.021-4.634 2.011-5.6 6.07-5.489 7.493.204 14.999.148 22.495-.018 3.6-.08 4.971 1.234 5.107 4.922.265 7.244 2.28 8.94 9.553 8.942 24.83.009 49.661.001 74.492 0 1.333 0 2.67-.056 3.999.023 5.567.33 9.133 3.845 8.904 8.724-.223 4.769-3.607 7.806-9.106 7.843-11.831.079-23.664.032-35.496.03-16.498-.002-33.002-.264-49.492.113-6.3.144-10.461-2.105-13.638-7.264-1.346-2.186-2.551-4.725-5.452-5.673-2.53 1.576-3.805 4.177-5.196 6.56-2.489 4.269-5.942 6.58-10.938 6.589-4.33.008-8.662.248-12.99.181-3.615-.055-5.2 1.327-5.844 5.106-6.144 36.06-12.498 72.085-18.795 108.119-.716 4.095-1.382 8.2-2.202 12.275-1.002 4.985-4.236 8.028-8.357 7.703-4.689-.37-7.2-3.433-7.875-7.758-2.49-15.931-4.796-31.891-7.156-47.843-3.504-23.68-6.987-47.365-10.492-71.046-3.846-25.985-7.693-51.97-11.576-77.95-.638-4.265-1.467-8.502-2.992-12.879-1.429 8.293-2.946 16.57-4.27 24.88a19913.084 19913.084 0 00-12.023 76.387c-.611 3.931-2.063 7.193-6.18 8.175-4.491 1.073-7.73-1.142-10.05-4.844-3.452-5.505-7.027-10.944-10.196-16.608-1.79-3.2-4.044-4.443-7.644-4.252-4.654.247-9.34.262-13.993.01-3.955-.214-5.927 1.25-7.22 5.108-12.109 36.147-24.403 72.233-36.656 108.332-2.354 6.936-4.81 13.838-7.114 20.79-.858 2.587-2.382 3.672-5.15 3.664-20.331-.051-40.663-.068-60.993.08-3.747.027-4.708-2.163-5.69-5.022a59026.066 59026.066 0 00-36.63-106.235c-32.485-93.938-64.99-187.87-97.472-281.81-.748-2.161-1.912-4.247-1.68-7.604H272z" />
	<path
		d="M564.558 372.44c-13.665 40.436-27.2 80.499-40.726 120.564-5.325 15.772-10.69 31.53-15.898 47.34-1.032 3.131-2.576 4.562-6.05 4.551-23.484-.069-46.97.043-70.454.082-1.972.003-4.004.307-5.82-.757-1.099-1.79.063-3.283.557-4.774C450.62 465.653 475.13 391.88 499.5 318.061c1.287-3.9 2.934-5.526 7.274-5.487 23.827.209 47.657.075 71.486.09 1.8.002 3.68-.33 6.148 1.164-6.531 19.293-13.124 38.766-19.85 58.612zM652.536 513.575c-.003-3.436.021-6.426.028-9.416.015-7.028.011-7.052 7.256-7.083 7.156-.03 14.312.03 21.468-.02 3.485-.025 5.104 1.337 5.02 5.07-.186 8.316-.165 16.642-.016 24.961.061 3.441-1.326 4.85-4.68 4.805-8.152-.108-16.305-.154-24.458-.155-3.255 0-4.777-1.185-4.56-4.74.261-4.308-.003-8.649-.058-13.422z" />
</svg>
